assets/O button blood type/Flat/o_button_(blood_type)_flat.svg

<svg width="32" height="32" viewBox="0 0 32 32" fill="none" xmlns="http://www.w3.org/2000/svg">
<path d="M2 6C2 3.79086 3.79086 2 6 2H26C28.2091 2 30 3.79086 30 6V26C30 28.2091 28.2091 30 26 30H6C3.79086 30 2 28.2091 2 26V6Z" fill="#F92F60"/>
<path d="M10.0312 12.9766C10.0312 9.6758 12.707 7 16.0078 7C19.3086 7 21.9844 9.6758 21.9844 12.9766V19.0234C21.9844 22.3242 19.3086 25 16.0078 25C12.707 25 10.0312 22.3242 10.0312 19.0234V12.9766ZM16.0078 10C14.3639 10 13.0312 11.3327 13.0312 12.9766V19.0234C13.0312 20.6673 14.3639 22 16.0078 22C17.6517 22 18.9844 20.6673 18.9844 19.0234V12.9766C18.9844 11.3327 17.6517 10 16.0078 10Z" fill="white"/>
</svg>

<svg xmlns="http://www.w3.org/2000/svg" width="32" height="32" fill="none"><path fill="#F92F60" d="M2 6a4 4 0 0 1 4-4h20a4 4 0 0 1 4 4v20a4 4 0 0 1-4 4H6a4 4 0 0 1-4-4V6Z"/><path fill="#fff" d="M10.031 12.977a5.977 5.977 0 1 1 11.953 0v6.046a5.977 5.977 0 1 1-11.953 0v-6.046ZM16.008 10a2.977 2.977 0 0 0-2.977 2.977v6.046a2.977 2.977 0 0 0 5.953 0v-6.046A2.977 2.977 0 0 0 16.008 10Z"/></svg>
